!! 00006] TT[TB
!! Eigene Aufnahme
!!!OTL: Dahe zhangshui sha lang sha
!!!ARE: Asia, China,ˇYunnan, Chenggong
!! Ethnic Group: Han
!! II, 58, 1)
!!!SCT: C0144
!!!YEM: Copyright 1995, estate of Helmut Schaffrath.
**kern
*ICvox
*Ivox
!! Mixed meters:  2/4; 3/4
*M3/4
*k[b-]
*F:
{8ff
8cc
8ff
8gg
=1
8.gg
16ff
8dd
16dd
16cc
=2
8ff
8cc
8dd
8cc
=3
[2ff
=4
4ff]
8cc
8r}
=5
{8cc
8dd
8dd
8cc
=6
4cc
8g
8g
=7
8f
8c
8f
8g
8g
8f
=8
*M2/4
[2f
=9
4f]
8c
8r}
=10
{8cc
8cc
8bn
8cc
=11
4ff
8cc
8cc
=12
4cc
8f
8f
=13
4g
8g
8r}
=14
{8cc
8dd
8dd
8cc
=15
4cc
8g
8g
=16
*M3/4
8f
8c
8f
8g
8g
8f
=17
*M2/4
[2f
=18
4f]
8c
8r}
==
!!!AGN: Shange. NannÅ siqing
!! "zart" ; Saengerin: Huang Bai
!!    Einige Verzierungen, Glissandi und Fermaten.
!!    In Takt 7 und 15 wir jew. statt der zweiten 2 eine 5 gesungen.
!!!ONB: ESAC (Essen Associative Code) Database: CHINA
!!!AMT: irregular
!!!AIN: vox
!!!EED: Helmut Schaffrath
!!!EEV: 1.0
*-
!!!ONB: Tied note syntax fixed by Craig Sapp, 2004/05/03/
